X:105
T:Merry Men Home From The War
S:American Veteran Fifer #105
C:By W.M. Larrabee Binghamton N.Y.
M:6/8
L:1/8
Q:1/8=300
K:G 
%%MIDI program 72
%%MIDI transpose 8
%%MIDI ratio 3 1
D | GAB BAB | GBd def | gfe edB | BAA A2B |
GAB BAB | GBd def | gfe edB | dBG G2 :|
|: d | gfg efg | abg afd | ege edB | BAA A2B |
GAB BAB | GBd def | gfe edB | dBG G2 :|


